icons/folder-yarn.svg

<svg xmlns="http://www.w3.org/2000/svg" viewBox="0 0 16 16">
<path id="folder" fill="#0288d1" d="m6.922 3.768-.644-.536A1 1 0 0 0 5.638 3H2a1 1 0 0 0-1 1v8a1 1 0 0 0 1 1h12a1 1 0 0 0 1-1V5a1 1 0 0 0-1-1H7.562a1 1 0 0 1-.64-.232" />
<path id="motive" fill="#b3e5fc" d="M 11.491668,4 C 11.152494,4.010587 10.823776,5.0488281 10.823776,5.0488281 A 1.7897642,1.7899716 0 0 0 9.3005148,5.65625 1.2498353,1.2499802 0 0 1 8.7986198,5.9609375 c -0.053493,0.02 -0.1182852,0.015304 -0.2792645,0.4667969 -0.249967,0.692489 0.4198732,1.4570312 0.4198732,1.4570312 A 3.6995125,3.6999412 0 0 0 7.8456052,9.1914063 3.4245487,3.4249456 0 0 0 7.617116,10.763672 a 1.9597417,1.9599688 0 0 0 -0.6093044,1.039062 1.7797655,1.7799717 0 0 0 0.230442,1.054688 l 0.00195,0.0059 a 0.24846726,0.24849605 0 0 0 0.3398043,0.115235 c 0,0 -0.3773419,0.455441 -0.025388,0.648437 a 1.0198656,1.0199837 0 0 0 1.1502573,-0.02734 c 0.2084729,-0.215997 0.2500961,-0.694628 0.328087,-0.890625 5.782e-4,-0.0014 0.00129,-0.0028 0.00195,-0.0039 0,0 0,-0.002 0,-0.002 0,0 0.00195,-0.002 0.00195,-0.002 0,0 0.00195,-0.002 0.00195,-0.002 0,0 0.00195,0 0.00195,0 0,0 0.00195,0 0.00195,0 0,0 0.00195,0 0.00195,0 0,0 0.00195,0 0.00195,0 0,0 0.00195,0 0.00195,0 0.00111,5.37e-4 0.00469,0.0031 0.00586,0.0039 0.028382,0.02232 0.074772,0.100687 0.1171739,0.144531 a 1.2498353,1.2499802 0 0 0 0.1796667,0.134766 l -0.00977,0.0039 a 0.5699249,0.56999094 0 0 0 -0.2909495,0.73643 C 9.1195347,13.893653 9.3648112,14.003 9.7672576,14 a 20.997233,20.999666 0 0 0 2.2282574,-0.207031 0.54992753,0.54999126 0 0 0 0.339805,-0.197266 8.0989327,8.0998712 0 0 0 2.019297,-0.941406 3.5995257,3.5999428 0 0 1 1.367029,-0.650391 0.38744894,0.38749384 0 0 0 0.271453,-0.445312 0.37495059,0.37499404 0 0 0 -0.437449,-0.310547 2.8846199,2.8849541 0 0 0 -1.476392,0.574219 2.2197075,2.2199647 0 0 1 -1.171739,0.466797 L 12.8958,12.267573 A 4.1994466,4.1999332 0 0 0 12.805969,10.40625 3.9494795,3.9499372 0 0 0 11.901776,9.0175781 5.0493346,5.0499197 0 0 0 12.798156,7.0859375 4.1744499,4.1749336 0 0 0 12.61849,4.8945312 C 12.568497,4.7950328 12.126359,5.0625 12.126359,5.0625 A 6.6491238,6.6498943 0 0 0 11.595171,4.03125 C 11.560207,4.0080472 11.526754,3.9989048 11.491668,4 Z" />
</svg>

<svg xmlns="http://www.w3.org/2000/svg" viewBox="0 0 16 16"><path id="folder" fill="#0288d1" d="m6.922 3.768-.644-.536A1 1 0 0 0 5.638 3H2a1 1 0 0 0-1 1v8a1 1 0 0 0 1 1h12a1 1 0 0 0 1-1V5a1 1 0 0 0-1-1H7.562a1 1 0 0 1-.64-.232"/><path id="motive" fill="#b3e5fc" d="M11.492 4c-.34.01-.668 1.049-.668 1.049a1.79 1.79 0 0 0-1.523.607 1.25 1.25 0 0 1-.502.305c-.054.02-.119.015-.28.467-.25.692.42 1.457.42 1.457A3.7 3.7 0 0 0 7.846 9.19a3.4 3.4 0 0 0-.229 1.573 1.96 1.96 0 0 0-.61 1.039 1.8 1.8 0 0 0 .231 1.054l.002.006a.25.25 0 0 0 .34.116s-.377.455-.025.648a1.02 1.02 0 0 0 1.15-.027c.208-.216.25-.695.328-.891l.002-.004v-.002l.002-.002.002-.002h.01l.005.004c.029.022.075.1.118.145a1.3 1.3 0 0 0 .18.134l-.01.004a.57.57 0 0 0-.291.737c.069.17.314.28.716.277a20.997 21 0 0 0 2.229-.207.55.55 0 0 0 .34-.197 8 8 0 0 0 2.019-.942 3.6 3.6 0 0 1 1.367-.65.387.387 0 0 0 .271-.445.375.375 0 0 0-.437-.311 2.9 2.9 0 0 0-1.477.574 2.2 2.2 0 0 1-1.171.467l-.012-.021a4.2 4.2 0 0 0-.09-1.862 3.95 3.95 0 0 0-.904-1.388 5.05 5.05 0 0 0 .896-1.932 4.2 4.2 0 0 0-.18-2.191c-.05-.1-.492.168-.492.168a6.7 6.7 0 0 0-.53-1.032.17.17 0 0 0-.104-.031"/></svg>
